X:5
T:Lady Harriet's Reel
R:reel
D:John Campbell, Cape Breton Violin Music (1975-2006)
O:Scottish
B:Ryan's Mammoth
Z:Paul Stewart Cranford (P.S.C.), <http://www.cranfordpub.com>
L:1/8
M:C|
Q:333
K:D
E|D/D/D AF D2 fe|d<BAF EDEF|D/D/D AF D2 fd|ABde fdd:|
||A|defg abaf|edef dBBc||defg abaf|edef d2 dB|
defg abaf|edfd edBd|AdFd BdAg|faea fdd|]
